dist/svg/attach-file.svg

<!-- Generated by Trend Micro Style Portal -->
<svg version="1.1" xmlns="http://www.w3.org/2000/svg" width="16" height="16" viewBox="0 0 16 16">
  <title>attach-file</title>
  <path fill="rgb(34,34,34)" d="M11 0h-9c-0.536 0.040-0.96 0.464-1 0.996l-0 0.004v14c0.040 0.536 0.464 0.96 0.996 1l0.004 0h4v-1h-4v-14h8v4h5v-1zM11 4v-2.6l2.6 2.6zM10.29 15.53l4.88-4.8c0.509-0.498 0.825-1.192 0.825-1.96s-0.316-1.462-0.825-1.96l-0.001-0c-0.513-0.509-1.22-0.824-2-0.824s-1.487 0.315-2 0.824l0-0-3.69 3.68 0.7 0.71 3.74-3.68c0.329-0.32 0.779-0.517 1.275-0.517s0.946 0.197 1.275 0.518l-0-0c0.324 0.316 0.524 0.757 0.524 1.245s-0.201 0.929-0.524 1.245l-0 0-4.88 4.8c-0.119 0.118-0.284 0.192-0.465 0.192s-0.346-0.073-0.465-0.192l0 0c-0.116-0.113-0.188-0.27-0.188-0.445s0.072-0.332 0.188-0.445l0-0 4.88-4.8-0.7-0.71-4.84 4.8c-0.299 0.294-0.484 0.703-0.484 1.155s0.185 0.861 0.484 1.155l0 0c0.301 0.293 0.712 0.473 1.165 0.473s0.864-0.181 1.165-0.474l-0 0z"></path>
</svg>

<svg width="16" height="16" viewBox="0 0 16 16" fill="rgb(34, 34, 34)" xmlns="http://www.w3.org/2000/svg"><title>attach-file</title><path d="M11 0H2C1.464 0.04 1.04 0.464 1 0.996V1V15C1.04 15.536 1.464 15.96 1.996 16H2H6V15H2V1H10V5H15V4L11 0ZM11 4V1.4L13.6 4H11ZM10.29 15.53L15.17 10.73C15.679 10.232 15.995 9.538 15.995 8.77C15.995 8.002 15.679 7.308 15.17 6.81H15.169C14.656 6.301 13.949 5.986 13.169 5.986C12.389 5.986 11.682 6.301 11.169 6.81L7.479 10.49L8.179 11.2L11.919 7.52C12.248 7.2 12.698 7.003 13.194 7.003C13.69 7.003 14.14 7.2 14.469 7.521C14.793 7.837 14.993 8.278 14.993 8.766C14.993 9.254 14.792 9.695 14.469 10.011L9.589 14.811C9.47 14.929 9.305 15.003 9.124 15.003C8.943 15.003 8.778 14.93 8.659 14.811C8.543 14.698 8.471 14.541 8.471 14.366C8.471 14.191 8.543 14.034 8.659 13.921L13.539 9.121L12.839 8.411L7.999 13.211C7.7 13.505 7.515 13.914 7.515 14.366C7.515 14.818 7.7 15.227 7.999 15.521C8.3 15.814 8.711 15.994 9.164 15.994C9.617 15.994 10.028 15.813 10.329 15.52L10.29 15.53Z" fill="rgb(34, 34, 34)" fill-opacity="1.00"/></svg>
